!! 00000] TT[WS
!!!OTL: Xiu qilu
!!!ARE: Asia, China, Shanxi Shouyang
!! Ethnic Group: Han
!! WII, 235 (1)
!!!SCT: J0753
!!!YEM: Copyright 1995, estate of Helmut Schaffrath.
**kern
*ICvox
*Ivox
*M2/4
*k[b-e-]
*B-:
{4bb-
4ff
=1
4ee-
8dd
8cc
=2
8ff
8gg
8ff
8cc
=3
2b-}
=4
{4cc
8ff
8ff
=5
4ee-
8dd
8cc
=6
8ff
8gg
8ff
8cc
=7
2b-}
=8
{8cc
8dd
8cc
8b-
=9
2a
=10
8cc
8dd
8cc
8b-
=11
2a}
=12
{4f
4b-
=13
4a
8g
8f
=14
8cc
8dd
8cc
8g
=15
2f}
=16
{8ff
8gg
8ff
8cc
=17
8ff
8gg
8ff
8cc
=18
8ff
8gg
8ff
8cc
=19
4b-
8a
8g}
=20
{4f
8b-
8b-
=21
4a
8g
8f
=22
8cc
8dd
8cc
8g
=23
2f}
==
!!!AGN: Xiaodiao. XÅshi, Xinminge
!!!ONB: ESAC (Essen Associative Code) Database: CHINA
!!!AMT: simple duple
!!!AIN: vox
!!!EED: Helmut Schaffrath
!!!EEV: 1.0
*-
